assets/icons/24px/stroke/sharing-24px.svg

<svg width="24" height="24" viewBox="0 0 24 24" fill="none" xmlns="http://www.w3.org/2000/svg">
<path fill-rule="evenodd" clip-rule="evenodd" d="M12.4056 15.4998C12.453 15.4998 12.5012 15.4999 12.55 15.4999H16.95C16.9989 15.4999 17.0471 15.4998 17.0945 15.4998C17.9297 15.4993 18.5502 15.499 19.0858 15.65C20.4253 16.0278 21.4721 17.0746 21.8499 18.4141C22.0009 18.9497 22.0006 19.5702 22.0001 20.4054C22.0001 20.4528 22 20.501 22 20.5499V20.9999C22 21.5521 21.5523 21.9999 21 21.9999C20.4478 21.9999 20 21.5521 20 20.9999V20.5499C20 19.5055 19.9906 19.1897 19.925 18.957C19.7361 18.2872 19.2127 17.7638 18.5429 17.575C18.3102 17.5093 17.9944 17.4999 16.95 17.4999H12.55C11.5057 17.4999 11.1899 17.5093 10.9572 17.575C10.2874 17.7638 9.76402 18.2872 9.57513 18.957C9.50951 19.1897 9.50005 19.5055 9.50005 20.5499V20.9999C9.50005 21.5521 9.05233 21.9999 8.50005 21.9999C7.94776 21.9999 7.50005 21.5521 7.50005 20.9999V20.5499C7.50005 20.501 7.50002 20.4528 7.49999 20.4054C7.49952 19.5702 7.49916 18.9497 7.65022 18.4141C8.02799 17.0746 9.07482 16.0278 10.4143 15.65C10.9499 15.499 11.5704 15.4993 12.4056 15.4998Z" fill="white"/>
<path fill-rule="evenodd" clip-rule="evenodd" d="M6.77621 11C6.81687 11.0001 6.85814 11.0001 6.90002 11.0001H7.00002C7.5523 11.0001 8.00002 11.4478 8.00002 12.0001C8.00002 12.5524 7.5523 13.0001 7.00002 13.0001H6.90002C6.00554 13.0001 5.73429 13.007 5.53313 13.0553C4.80183 13.2309 4.23085 13.8019 4.05528 14.5332C4.00698 14.7344 4.00002 15.0056 4.00002 15.9001V17.5001C4.00002 18.0524 3.5523 18.5001 3.00002 18.5001C2.44773 18.5001 2.00002 18.0524 2.00002 17.5001V15.9001C2.00002 15.8582 2 15.8169 1.99998 15.7763C1.99963 15.0605 1.99937 14.5293 2.11054 14.0663C2.46168 12.6037 3.60364 11.4617 5.06624 11.1106C5.52929 10.9994 6.06048 10.9997 6.77621 11Z" fill="white"/>
<path fill-rule="evenodd" clip-rule="evenodd" d="M15 7C13.6193 7 12.5 8.11929 12.5 9.5C12.5 10.8807 13.6193 12 15 12C16.3807 12 17.5 10.8807 17.5 9.5C17.5 8.11929 16.3807 7 15 7ZM10.5 9.5C10.5 7.01472 12.5147 5 15 5C17.4853 5 19.5 7.01472 19.5 9.5C19.5 11.9853 17.4853 14 15 14C12.5147 14 10.5 11.9853 10.5 9.5Z" fill="white"/>
<path fill-rule="evenodd" clip-rule="evenodd" d="M8.27273 4C6.96195 4 6 4.98875 6 6.08785C6 6.95844 6.59249 7.74933 7.49817 8.05136C8.02209 8.22608 8.30518 8.79244 8.13046 9.31636C7.95574 9.84028 7.38938 10.1234 6.86546 9.94864C5.22891 9.40288 4 7.90621 4 6.08785C4 3.77621 5.96854 2 8.27273 2C9.73443 2 11.0427 2.70499 11.8174 3.80434C12.1356 4.25579 12.0275 4.87966 11.576 5.1978C11.1246 5.51594 10.5007 5.40786 10.1826 4.95641C9.78464 4.39172 9.08772 4 8.27273 4Z" fill="white"/>
</svg>

<svg width="24" height="24" fill="none" xmlns="http://www.w3.org/2000/svg"><path fill-rule="evenodd" clip-rule="evenodd" d="M12.406 15.5h4.689c.835 0 1.455-.001 1.99.15a4 4 0 0 1 2.765 2.764c.15.536.15 1.156.15 1.991V21a1 1 0 0 1-2 0v-.45c0-1.044-.01-1.36-.075-1.593a2 2 0 0 0-1.382-1.382c-.233-.066-.549-.075-1.593-.075h-4.4c-1.044 0-1.36.01-1.593.075a2 2 0 0 0-1.382 1.382c-.065.233-.075.549-.075 1.593V21a1 1 0 0 1-2 0v-.45-.145c0-.835 0-1.455.15-1.99a4 4 0 0 1 2.764-2.765c.536-.151 1.156-.15 1.992-.15zM6.776 11H7a1 1 0 1 1 0 2h-.1c-.894 0-1.166.007-1.367.055a2 2 0 0 0-1.478 1.478C4.007 14.734 4 15.006 4 15.9v1.6a1 1 0 1 1-2 0v-1.6-.124c0-.716 0-1.247.11-1.71a4 4 0 0 1 2.956-2.955c.463-.112.994-.111 1.71-.111zM15 7a2.5 2.5 0 1 0 0 5 2.5 2.5 0 0 0 0-5zm-4.5 2.5a4.5 4.5 0 1 1 9 0 4.5 4.5 0 0 1-9 0zM8.273 4C6.962 4 6 4.989 6 6.088c0 .87.592 1.661 1.498 1.963a1 1 0 0 1-.633 1.898C5.23 9.403 4 7.906 4 6.088 4 3.776 5.969 2 8.273 2c1.461 0 2.77.705 3.544 1.804a1 1 0 1 1-1.634 1.152C9.785 4.392 9.088 4 8.273 4z" fill="#fff"/></svg>
